packages/core/src/svgs/tokens/mono/SERO.svg

<svg width="24" height="24" viewBox="0 0 24 24" fill="none" xmlns="http://www.w3.org/2000/svg">
<path fill-rule="evenodd" clip-rule="evenodd" d="M11.9999 22C17.5231 22 22 17.5231 22 11.9999C22 6.47685 17.5231 2 11.9999 2C6.47685 2 2 6.47685 2 11.9999C2 17.5231 6.47685 22 11.9999 22ZM20.3337 14.6736C20.6104 13.8094 20.7508 12.9075 20.7499 11.9999C20.7499 7.16749 16.8324 3.24999 11.9999 3.24999C9.91352 3.24699 7.89526 3.99256 6.31185 5.35124L6.36624 5.31999C5.87123 5.66373 4.91311 6.91498 5.04248 9.16306C5.17124 11.4106 6.46249 12.4188 7.43248 13.0707L7.81498 13.328C10.1775 14.9106 12.6969 16.5986 11.9862 18.045C11.9218 17.6462 11.5662 16.7594 10.6618 16.3974C9.75748 16.0356 7.61497 14.8037 6.65685 14.2337C5.53748 13.5768 3.36311 11.7399 3.62124 9.64752C3.63562 9.53246 3.65249 9.4206 3.67124 9.31065C3.39129 10.1795 3.24915 11.087 3.24999 11.9999C3.24999 16.8324 7.16749 20.7499 11.9999 20.7499C14.6211 20.7499 16.9724 19.5974 18.5761 17.7719C18.8974 17.2412 19.4355 15.8775 19.2137 14.3018C18.9293 12.2756 16.8081 9.74304 13.6425 8.66685C14.8456 8.88809 17.6437 9.85679 19.2137 11.9587C19.9025 12.8812 20.2224 13.8281 20.3337 14.6736ZM15.7318 8.38185L16.5549 8.09685L16.0487 4.86811C15.1199 4.37187 12.6925 3.60811 10.4137 4.51999C7.56436 5.65935 7.19248 7.97186 7.31873 9.23875C7.4456 10.5043 7.84936 11.2944 8.86247 11.9587C9.67246 12.4905 11.6906 13.6788 12.5982 14.2068C13.1888 14.5656 14.3455 15.568 14.2437 16.7074C14.1174 18.1325 13.5924 18.9762 11.9962 19.1137C10.8881 19.208 8.83059 17.9106 7.88122 15.4094L6.92435 15.5593L7.28123 18.7237C7.8906 19.2893 9.68616 20.3737 11.9962 20.1825C14.8844 19.943 17.2499 18.2581 17.2499 15.5593C17.2499 13.4005 15.8374 12.1156 15.1313 11.7437L11.1605 9.45808C10.5212 9.0556 9.08621 7.47185 10.5069 5.88499C11.9819 4.23748 14.6725 6.01624 14.9881 6.76122C15.2231 7.30725 15.4711 7.84762 15.7318 8.38185Z" fill="white"/>
</svg>

<svg xmlns="http://www.w3.org/2000/svg" width="24" height="24" fill="none" viewBox="0 0 24 24">
    <path fill="#fff" fill-rule="evenodd" d="M12 22c5.523 0 10-4.477 10-10S17.523 2 12 2 2 6.477 2 12s4.477 10 10 10m8.334-7.326A8.75 8.75 0 0 0 6.312 5.352l.054-.032c-.495.344-1.453 1.595-1.324 3.843.13 2.248 1.42 3.256 2.39 3.908l.383.257c2.363 1.583 4.882 3.27 4.171 4.717-.064-.399-.42-1.286-1.324-1.648s-3.047-1.593-4.005-2.163c-1.12-.657-3.294-2.494-3.036-4.586q.022-.173.05-.337a8.75 8.75 0 0 0 14.905 8.461c.321-.53.86-1.894.638-3.47-.285-2.026-2.406-4.559-5.571-5.635 1.203.221 4 1.19 5.57 3.292a5.76 5.76 0 0 1 1.12 2.715m-4.602-6.292.823-.285-.506-3.229c-.93-.496-3.356-1.26-5.635-.348-2.85 1.14-3.222 3.452-3.095 4.719.127 1.265.53 2.055 1.543 2.72.81.532 2.829 1.72 3.736 2.248.59.359 1.747 1.361 1.646 2.5-.127 1.425-.652 2.27-2.248 2.407-1.108.094-3.165-1.203-4.115-3.705l-.957.15.357 3.165c.61.565 2.405 1.65 4.715 1.459 2.888-.24 5.254-1.925 5.254-4.624 0-2.158-1.413-3.443-2.119-3.815l-3.97-2.286c-.64-.402-2.075-1.986-.654-3.573 1.475-1.648 4.166.131 4.481.876q.352.82.744 1.62" clip-rule="evenodd"/>
</svg>
